IMB-X-Files/The-Ambassadors-Assets/6616e2ee10c44cecb1ffe09a_smr-logo.svg

<svg fill="none" height="53" viewBox="0 0 242 53" width="242" xmlns="http://www.w3.org/2000/svg" xmlns:xlink="http://www.w3.org/1999/xlink"><clipPath id="a"><path d="m0 0h22.9767v22.8312h-22.9767z" transform="matrix(.96592583 .25881905 -.25881905 .96592583 52.9082 12)"/></clipPath><clipPath id="b"><path d="m0 0h25.1443v27.8804h-25.1443z" transform="matrix(.96592583 .25881905 -.25881905 .96592583 52.5156 9.28101)"/></clipPath><mask id="c" height="34" maskUnits="userSpaceOnUse" width="32" x="45" y="9"><g clip-path="url(#b)" fill="none"><path d="m50.2769 17.9491c2.6689 2.6606 6.5735 3.6159 10.1093 2.4633 5.1437-1.6763 6.5786-6.8555 6.6657-7.189" stroke="#0e0b1c" stroke-miterlimit="10" stroke-width=".654424"/><path d="m71.8961 33.8852c-2.6689-2.6606-6.5734-3.6159-10.1093-2.4633-5.1437 1.6763-6.5786 6.8555-6.6657 7.1889" stroke="#0e0b1c" stroke-miterlimit="10" stroke-width=".654424"/><path d="m49.0092 31.6979c3.6053-1.1022 6.3323-4.1102 7.0519-7.7924 1.0474-5.358-2.7479-9.0909-2.9927-9.3247" stroke="#0e0b1c" stroke-miterlimit="10" stroke-width=".654424"/><path d="m68.3688 36.9967c-2.5712-2.7571-3.4288-6.7256-2.2109-10.2743 1.7719-5.1639 6.9252-6.499 7.2541-6.579" stroke="#0e0b1c" stroke-miterlimit="10" stroke-width=".654424"/><path d="m74.3626 24.5192c-3.6655.8746-7.4937-.3489-9.9061-3.1794-3.5131-4.1164-2.0343-9.2838-1.9352-9.6118" stroke="#0e0b1c" stroke-miterlimit="10" stroke-width=".654424"/><path d="m47.8986 27.2142c3.6656-.8747 7.4937.3488 9.9062 3.1793 3.5131 4.1164 2.0342 9.2838 1.9351 9.6118" stroke="#0e0b1c" stroke-miterlimit="10" stroke-width=".654424"/><path d="m60.2358 28.6224c1.4454.3873 2.9352-.4855 3.3274-1.9494.3923-1.4639-.4615-2.9646-1.907-3.3519-1.4454-.3873-2.9351.4855-3.3274 1.9494-.3922 1.4639.4616 2.9646 1.907 3.3519z" stroke="#0e0b1c" stroke-miterlimit="10" stroke-width=".654424"/></g></mask><g clip-path="url(#a)"><path d="m50.6102 23.0888c2.3395-8.7311 4.6887-10.1074 13.3097-7.7974s9.9673 4.6765 7.6278 13.4076c-2.3395 8.7312-4.6886 10.1074-13.3096 7.7974-8.6211-2.31-9.9674-4.6764-7.6279-13.4076z" fill="#fff"/><g mask="url(#c)"><ellipse cx="61.0784" cy="25.8937" fill="#0e031e" rx="10.1878" ry="10.3179" transform="matrix(.96592583 .25881905 -.25881905 .96592583 8.782979 -14.925947)"/></g></g><g fill="#fff"><path d="m91.3166 35.3076c-1.0495 0-1.999-.05-2.8485-.175-.8496-.1249-1.5992-.2998-2.2488-.5497-1.2993-.4997-2.2988-1.2243-2.9485-2.2238-.6746-.9745-1.0994-2.1988-1.2493-3.6731h3.0484c.1749 1.4743.7746 2.5237 1.799 3.1734 1.0245.6496 2.5237.9495 4.4976.9495 1.7741 0 3.0734-.2499 3.898-.7996.8246-.5247 1.2493-1.2244 1.2493-2.1239 0-.3748-.0749-.6996-.1749-.9745-.1249-.2748-.2998-.4997-.5247-.6996-.4748-.3498-1.1744-.6247-2.1239-.7996-.9495-.1499-2.1488-.2998-3.5981-.4248-.7496-.0749-1.4242-.1749-2.0739-.2748-.6496-.1-1.2493-.2499-1.774-.4248-1.0995-.2998-1.949-.7996-2.5487-1.4742-.5997-.6497-.8745-1.5992-.8745-2.8235 0-.4998.0499-.9995.1999-1.4492.1499-.4498.3498-.8496.6496-1.2494.5497-.7996 1.3993-1.4242 2.5487-1.874 1.1244-.4498 2.5236-.6746 4.2227-.6746 2.6736 0 4.7225.4997 6.1718 1.4742 1.4492.9995 2.2988 2.4487 2.5486 4.3477h-2.9734c-.1749-1.1994-.7496-2.0489-1.7241-2.5986-.9995-.5498-2.3487-.8246-4.0728-.8246-1.6742 0-2.8735.2748-3.6231.7746-.7496.4997-1.0994 1.1744-1.0994 1.9989 0 .3249.0499.5997.1499.8496.0999.2498.2498.4747.4497.6246.3998.3499 1.0245.6247 1.8741.7996.8495.1749 1.9489.3249 3.2982.4498.8246.0749 1.5992.1749 2.2988.2998.6996.125 1.3493.2499 1.949.3998 1.1743.3248 2.0739.8246 2.6985 1.4992.6247.6997.9495 1.6492.9495 2.8985 0 1.6741-.6496 3.0234-1.9739 4.0479-1.3243 1.0244-3.3483 1.5242-6.0468 1.5242z"/><path d="m104.401 27.8115v7.0463h-2.848v-14.2675h2.424l.25 3.1983c.424-1.0994 1.124-1.9739 2.073-2.6736.95-.6746 2.124-1.0244 3.549-1.0244 1.549 0 2.773.3498 3.673 1.0494.899.6997 1.524 1.6242 1.874 2.7736.424-1.1494 1.124-2.0739 2.099-2.7736.974-.6996 2.198-1.0494 3.648-1.0494 2.074 0 3.623.6247 4.647 1.824 1.025 1.2244 1.549 2.8485 1.549 4.8725v8.0707h-2.848v-7.546c0-1.4493-.325-2.6236-.975-3.5232-.649-.8745-1.749-1.3243-3.323-1.3243-1.424 0-2.499.4748-3.198 1.3743-.725.9245-1.075 2.0989-1.075 3.5481v7.4711h-2.823v-7.7209c0-.4248-.05-.8246-.1-1.2244-.05-.3748-.15-.7496-.275-1.1244-.25-.6996-.675-1.2493-1.274-1.6741-.6-.4248-1.449-.6497-2.499-.6497-1.474 0-2.599.4998-3.373 1.4493-.8.9745-1.175 2.2738-1.175 3.8979z"/><path d="m135.627 33.1837c1.025 0 1.974-.1499 2.824-.4498.849-.2998 1.574-.7246 2.174-1.2493.599-.4998 1.074-1.0745 1.399-1.6991.325-.5997.5-1.2244.5-1.8491v-.7745c-.275.2998-.75.5497-1.4.7246-.649.1749-1.574.2998-2.723.3998-1.425.1249-2.499.2748-3.224.4247-.749.15-1.324.3748-1.749.6247-.35.2249-.599.4748-.749.7746-.175.2998-.25.6247-.25.9995 0 .6246.25 1.1244.749 1.4992.5.3998 1.3.5747 2.449.5747zm7.246 1.6741-.275-3.773c-.199.3998-.424.7746-.699 1.1244s-.575.6996-.925.9995c-.699.6496-1.574 1.1494-2.598 1.5242-1.05.3748-2.224.5497-3.573.5497-1.824 0-3.174-.3249-4.073-1.0245-.9-.6746-1.35-1.6241-1.35-2.8735 0-.7496.15-1.4242.5-1.9989.325-.5497.825-1.0245 1.474-1.3993.2-.1249.425-.2498.675-.3498.25-.0999.5-.2249.775-.3248.524-.1499 1.199-.2999 2.024-.4498.824-.1249 1.899-.2499 3.198-.3498 1.599-.1249 2.723-.2998 3.423-.5247.675-.1999 1.025-.6247 1.025-1.2494v-.025c0-.1998-.05-.4247-.1-.6246-.075-.1999-.175-.3998-.325-.5997-.275-.3748-.725-.6747-1.375-.8995-.649-.2249-1.524-.3498-2.623-.3498-1.824 0-3.148.2998-3.973.8745s-1.299 1.3993-1.399 2.4737h-2.924c.175-1.7741.95-3.1234 2.349-4.0729 1.374-.9495 3.298-1.4242 5.772-1.4242 2.524 0 4.373.4498 5.547 1.2993 1.174.8745 1.774 2.1739 1.774 3.8979v9.57z"/><path d="m151.04 34.8578h-2.849v-14.2675h2.424l.35 4.0979c.35-1.2994 1.024-2.3238 1.999-3.0734.949-.7496 2.274-1.1244 3.973-1.1244h1.299v2.7985h-1.474c-.725 0-1.374.075-1.949.1749-.575.1-1.075.2499-1.474.4498-.85.4497-1.425 1.0994-1.774 1.9739-.35.8996-.525 2.024-.525 3.4232z"/><path d="m171.069 32.3091v2.5487h-2.274c-.75 0-1.424-.05-1.999-.1499-.6-.1-1.1-.2249-1.524-.4248-.85-.3748-1.45-1.0245-1.799-1.949-.35-.8995-.525-2.1488-.525-3.748v-5.5471h-3.423v-2.3237h1.024c.45 0 .775-.025 1.025-.05.574-.025.949-.1249 1.149-.3248s.325-.5997.4-1.1994c.05-.3248.075-.7246.1-1.2244.025-.4997.05-.8995.05-1.2243h2.348v3.8979h7.492v2.4487h-7.492v5.1223c0 .5997.025 1.1244.075 1.5742s.125.7996.25 1.0994c.2.5997.575.9995 1.125 1.1994.549.1999 1.349.2748 2.398.2748z"/><path d="m175.961 34.8578h-2.848v-14.2675h2.424l.349 4.0979c.35-1.2994 1.025-2.3238 1.999-3.0734.95-.7496 2.274-1.1244 3.973-1.1244h1.3v2.7985h-1.475c-.724 0-1.374.075-1.949.1749-.574.1-1.074.2499-1.474.4498-.849.4497-1.424 1.0994-1.774 1.9739-.35.8996-.525 2.024-.525 3.4232z"/><path d="m187.971 34.8578h-2.849v-14.2675h2.424l.35 4.0979c.349-1.2994 1.024-2.3238 1.999-3.0734.949-.7496 2.273-1.1244 3.972-1.1244h1.3v2.7985h-1.474c-.725 0-1.375.075-1.949.1749-.575.1-1.075.2499-1.475.4498-.849.4497-1.424 1.0994-1.774 1.9739-.35.8996-.524 2.024-.524 3.4232z"/></g></svg>

<svg width="242" height="53" viewBox="0 0 242 53" fill="none" xmlns="http://www.w3.org/2000/svg">
<g clip-path="url(#clip0_3773_1514)">
<path d="M50.6102 23.0888C52.9497 14.3577 55.2989 12.9814 63.9199 15.2914C72.5409 17.6014 73.8872 19.9679 71.5477 28.699C69.2082 37.4302 66.8591 38.8064 58.2381 36.4964C49.617 34.1864 48.2707 31.82 50.6102 23.0888Z" fill="white"/>
<mask id="mask0_3773_1514" style="mask-type:alpha" maskUnits="userSpaceOnUse" x="45" y="9" width="32" height="34">
<g clip-path="url(#clip1_3773_1514)">
<path d="M50.2769 17.9491C52.9458 20.6097 56.8504 21.565 60.3862 20.4124C65.5299 18.7361 66.9648 13.5569 67.0519 13.2234" stroke="#0E0B1C" stroke-width="0.654424" stroke-miterlimit="10"/>
<path d="M71.8961 33.8852C69.2272 31.2246 65.3227 30.2693 61.7868 31.4219C56.6431 33.0982 55.2082 38.2774 55.1211 38.6108" stroke="#0E0B1C" stroke-width="0.654424" stroke-miterlimit="10"/>
<path d="M49.0092 31.6979C52.6145 30.5957 55.3415 27.5877 56.0611 23.9055C57.1085 18.5475 53.3132 14.8146 53.0684 14.5808" stroke="#0E0B1C" stroke-width="0.654424" stroke-miterlimit="10"/>
<path d="M68.3688 36.9967C65.7976 34.2396 64.94 30.2711 66.1579 26.7224C67.9298 21.5585 73.0831 20.2234 73.412 20.1434" stroke="#0E0B1C" stroke-width="0.654424" stroke-miterlimit="10"/>
<path d="M74.3626 24.5192C70.6971 25.3938 66.8689 24.1703 64.4565 21.3398C60.9434 17.2234 62.4222 12.056 62.5213 11.728" stroke="#0E0B1C" stroke-width="0.654424" stroke-miterlimit="10"/>
<path d="M47.8986 27.2142C51.5642 26.3395 55.3923 27.563 57.8048 30.3935C61.3179 34.5099 59.839 39.6773 59.7399 40.0053" stroke="#0E0B1C" stroke-width="0.654424" stroke-miterlimit="10"/>
<path d="M60.2358 28.6224C61.6812 29.0097 63.171 28.1369 63.5632 26.673C63.9555 25.2091 63.1017 23.7084 61.6562 23.3211C60.2108 22.9338 58.7211 23.8066 58.3288 25.2705C57.9366 26.7344 58.7904 28.2351 60.2358 28.6224Z" stroke="#0E0B1C" stroke-width="0.654424" stroke-miterlimit="10"/>
</g>
</mask>
<g mask="url(#mask0_3773_1514)">
<ellipse cx="61.0784" cy="25.8937" rx="10.1878" ry="10.3179" transform="rotate(15 61.0784 25.8937)" fill="#0E031E"/>
</g>
</g>
<path d="M91.3166 35.3076C90.2671 35.3076 89.3176 35.2576 88.4681 35.1326C87.6185 35.0077 86.8689 34.8328 86.2193 34.5829C84.92 34.0832 83.9205 33.3586 83.2708 32.3591C82.5962 31.3846 82.1714 30.1603 82.0215 28.686H85.0699C85.2448 30.1603 85.8445 31.2097 86.8689 31.8594C87.8934 32.509 89.3926 32.8089 91.3665 32.8089C93.1406 32.8089 94.4399 32.559 95.2645 32.0093C96.0891 31.4846 96.5138 30.7849 96.5138 29.8854C96.5138 29.5106 96.4389 29.1858 96.3389 28.9109C96.214 28.6361 96.0391 28.4112 95.8142 28.2113C95.3394 27.8615 94.6398 27.5866 93.6903 27.4117C92.7408 27.2618 91.5415 27.1119 90.0922 26.9869C89.3426 26.912 88.668 26.812 88.0183 26.7121C87.3687 26.6121 86.769 26.4622 86.2443 26.2873C85.1448 25.9875 84.2953 25.4877 83.6956 24.8131C83.0959 24.1634 82.8211 23.2139 82.8211 21.9896C82.8211 21.4898 82.871 20.9901 83.021 20.5404C83.1709 20.0906 83.3708 19.6908 83.6706 19.291C84.2203 18.4914 85.0699 17.8668 86.2193 17.417C87.3437 16.9672 88.7429 16.7424 90.442 16.7424C93.1156 16.7424 95.1645 17.2421 96.6138 18.2166C98.063 19.2161 98.9126 20.6653 99.1624 22.5643H96.189C96.0141 21.3649 95.4394 20.5154 94.4649 19.9657C93.4654 19.4159 92.1162 19.1411 90.3921 19.1411C88.7179 19.1411 87.5186 19.4159 86.769 19.9157C86.0194 20.4154 85.6696 21.0901 85.6696 21.9146C85.6696 22.2395 85.7195 22.5143 85.8195 22.7642C85.9194 23.014 86.0693 23.2389 86.2692 23.3888C86.669 23.7387 87.2937 24.0135 88.1433 24.1884C88.9928 24.3633 90.0922 24.5133 91.4415 24.6382C92.2661 24.7131 93.0407 24.8131 93.7403 24.938C94.4399 25.063 95.0896 25.1879 95.6893 25.3378C96.8636 25.6626 97.7632 26.1624 98.3878 26.837C99.0125 27.5367 99.3373 28.4862 99.3373 29.7355C99.3373 31.4096 98.6877 32.7589 97.3634 33.7834C96.0391 34.8078 94.0151 35.3076 91.3166 35.3076Z" fill="white"/>
<path d="M104.401 27.8115V34.8578H101.553V20.5903H103.977L104.227 23.7886C104.651 22.6892 105.351 21.8147 106.3 21.115C107.25 20.4404 108.424 20.0906 109.849 20.0906C111.398 20.0906 112.622 20.4404 113.522 21.14C114.421 21.8397 115.046 22.7642 115.396 23.9136C115.82 22.7642 116.52 21.8397 117.495 21.14C118.469 20.4404 119.693 20.0906 121.143 20.0906C123.217 20.0906 124.766 20.7153 125.79 21.9146C126.815 23.139 127.339 24.7631 127.339 26.7871V34.8578H124.491V27.3118C124.491 25.8625 124.166 24.6882 123.516 23.7886C122.867 22.9141 121.767 22.4643 120.193 22.4643C118.769 22.4643 117.694 22.9391 116.995 23.8386C116.27 24.7631 115.92 25.9375 115.92 27.3867V34.8578H113.097V27.1369C113.097 26.7121 113.047 26.3123 112.997 25.9125C112.947 25.5377 112.847 25.1629 112.722 24.7881C112.472 24.0885 112.047 23.5388 111.448 23.114C110.848 22.6892 109.999 22.4643 108.949 22.4643C107.475 22.4643 106.35 22.9641 105.576 23.9136C104.776 24.8881 104.401 26.1874 104.401 27.8115Z" fill="white"/>
<path d="M135.627 33.1837C136.652 33.1837 137.601 33.0338 138.451 32.7339C139.3 32.4341 140.025 32.0093 140.625 31.4846C141.224 30.9848 141.699 30.4101 142.024 29.7855C142.349 29.1858 142.524 28.5611 142.524 27.9364V27.1619C142.249 27.4617 141.774 27.7116 141.124 27.8865C140.475 28.0614 139.55 28.1863 138.401 28.2863C136.976 28.4112 135.902 28.5611 135.177 28.711C134.428 28.861 133.853 29.0858 133.428 29.3357C133.078 29.5606 132.829 29.8105 132.679 30.1103C132.504 30.4101 132.429 30.735 132.429 31.1098C132.429 31.7344 132.679 32.2342 133.178 32.609C133.678 33.0088 134.478 33.1837 135.627 33.1837ZM142.873 34.8578L142.598 31.0848C142.399 31.4846 142.174 31.8594 141.899 32.2092C141.624 32.559 141.324 32.9088 140.974 33.2087C140.275 33.8583 139.4 34.3581 138.376 34.7329C137.326 35.1077 136.152 35.2826 134.803 35.2826C132.979 35.2826 131.629 34.9577 130.73 34.2581C129.83 33.5835 129.38 32.634 129.38 31.3846C129.38 30.635 129.53 29.9604 129.88 29.3857C130.205 28.836 130.705 28.3612 131.354 27.9864C131.554 27.8615 131.779 27.7366 132.029 27.6366C132.279 27.5367 132.529 27.4117 132.804 27.3118C133.328 27.1619 134.003 27.0119 134.828 26.862C135.652 26.7371 136.727 26.6121 138.026 26.5122C139.625 26.3873 140.749 26.2124 141.449 25.9875C142.124 25.7876 142.474 25.3628 142.474 24.7381V24.7131C142.474 24.5133 142.424 24.2884 142.374 24.0885C142.299 23.8886 142.199 23.6887 142.049 23.4888C141.774 23.114 141.324 22.8141 140.674 22.5893C140.025 22.3644 139.15 22.2395 138.051 22.2395C136.227 22.2395 134.903 22.5393 134.078 23.114C133.253 23.6887 132.779 24.5133 132.679 25.5877H129.755C129.93 23.8136 130.705 22.4643 132.104 21.5148C133.478 20.5653 135.402 20.0906 137.876 20.0906C140.4 20.0906 142.249 20.5404 143.423 21.3899C144.597 22.2644 145.197 23.5638 145.197 25.2878V34.8578H142.873Z" fill="white"/>
<path d="M151.04 34.8578H148.191V20.5903H150.615L150.965 24.6882C151.315 23.3888 151.989 22.3644 152.964 21.6148C153.913 20.8652 155.238 20.4904 156.937 20.4904H158.236V23.2889H156.762C156.037 23.2889 155.388 23.3639 154.813 23.4638C154.238 23.5638 153.738 23.7137 153.339 23.9136C152.489 24.3633 151.914 25.013 151.565 25.8875C151.215 26.7871 151.04 27.9115 151.04 29.3107V34.8578Z" fill="white"/>
<path d="M171.069 32.3091V34.8578H168.795C168.045 34.8578 167.371 34.8078 166.796 34.7079C166.196 34.6079 165.696 34.483 165.272 34.2831C164.422 33.9083 163.822 33.2586 163.473 32.3341C163.123 31.4346 162.948 30.1853 162.948 28.5861V23.039H159.525V20.7153C159.75 20.7153 160.099 20.7153 160.549 20.7153C160.999 20.7153 161.324 20.6903 161.574 20.6653C162.148 20.6403 162.523 20.5404 162.723 20.3405C162.923 20.1406 163.048 19.7408 163.123 19.1411C163.173 18.8163 163.198 18.4165 163.223 17.9167C163.248 17.417 163.273 17.0172 163.273 16.6924H165.621V20.5903H173.113V23.039H165.621V28.1613C165.621 28.761 165.646 29.2857 165.696 29.7355C165.746 30.1853 165.821 30.5351 165.946 30.8349C166.146 31.4346 166.521 31.8344 167.071 32.0343C167.62 32.2342 168.42 32.3091 169.469 32.3091H171.069Z" fill="white"/>
<path d="M175.961 34.8578H173.113V20.5903H175.537L175.886 24.6882C176.236 23.3888 176.911 22.3644 177.885 21.6148C178.835 20.8652 180.159 20.4904 181.858 20.4904H183.158V23.2889H181.683C180.959 23.2889 180.309 23.3639 179.734 23.4638C179.16 23.5638 178.66 23.7137 178.26 23.9136C177.411 24.3633 176.836 25.013 176.486 25.8875C176.136 26.7871 175.961 27.9115 175.961 29.3107V34.8578Z" fill="white"/>
<path d="M187.971 34.8578H185.122V20.5903H187.546L187.896 24.6882C188.245 23.3888 188.92 22.3644 189.895 21.6148C190.844 20.8652 192.168 20.4904 193.867 20.4904H195.167V23.2889H193.693C192.968 23.2889 192.318 23.3639 191.744 23.4638C191.169 23.5638 190.669 23.7137 190.269 23.9136C189.42 24.3633 188.845 25.013 188.495 25.8875C188.145 26.7871 187.971 27.9115 187.971 29.3107V34.8578Z" fill="white"/>
<defs>
<clipPath id="clip0_3773_1514">
<rect width="22.9767" height="22.8312" fill="white" transform="translate(52.9082 12) rotate(15)"/>
</clipPath>
<clipPath id="clip1_3773_1514">
<rect width="25.1443" height="27.8804" fill="white" transform="translate(52.5156 9.28101) rotate(15)"/>
</clipPath>
</defs>
</svg>
